!! 00000] TT[WS
!!!OTL: Zoushang haobi yigu feng
!!!ARE: Asia, China,ÿShanxi Hequ
!! Ethnic Group: Han
!! WI, 33
!!!SCT: J0036
!!!YEM: Copyright 1995, estate of Helmut Schaffrath.
**kern
*ICvox
*Ivox
*M2/4
*k[f#c#]
*D:
{8ee
4b
16a
16b
=1
8ee
4a
8f#
=2
8f#
8e
8d
8B
=3
2b}
=4
{8ee
4b
16a
16b
=5
8ee
4a
8f#
=6
8f#
8e
8d
8B
=7
2e}
==
!!!AGN: Shange, Shanqu. Qingge
!!!ONB: ESAC (Essen Associative Code) Database: CHINA
!!!AMT: simple duple
!!!AIN: vox
!!!EED: Helmut Schaffrath
!!!EEV: 1.0
*-
